X:620
T:Redwing
C:Traditional
M:4/4
L:1/4
S:Colin Hume's website,  colinhume.com  - chords can also be printed below the stave.
Q:1/2=112
K:D
|: zA, | "D"D3/ D/ D F | A3 D | "G"GB dB | "D"A3 F |\
"G"G G E G | "D"F F D F | "E7"E E E D | "A7"C E A A, |
"D"D3/ D/ D F | A3 D | "G"GB dB | "D"A3 F |\
"G"G G E G | "D"F F D F | "E7"E B, "A7"C A, | "D"D2 :|
d c | "G"B3B | Bd cB | "D"A2 F2- | FA BA |\
"A7"A2 E2- | EA BA | "D"A2 F2- | F2 dc |
"G"B3B | Bd cB | "D"A2 F2- | FA BA |\
"A7"A2 E2- | E G F E | "D"D2- "G"D2 | "D"D2 |]

